packages/calcite-ui-icons/icons/zoning-parameter-24.svg

<?xml version="1.0" encoding="UTF-8"?><svg id="icons" xmlns="http://www.w3.org/2000/svg" viewBox="0 0 24 24"><rect width="24" height="24" style="fill:none;"/><path d="M20.01294,22h-1.31311l-2.19983-3.08063-2.19983,3.08063h-1.31311l2.85638-4-2.85638-4h1.31311l2.19983,3.08057,2.19983-3.08057h1.31311l-2.85638,4,2.85638,4ZM23.95001,18c0-1.84906-.44946-4.56879-1.30286-6h-1.19147c.96393,1.37097,1.54431,4.10852,1.54431,6s-.58038,4.62903-1.54431,6h1.19147c.85339-1.43121,1.30286-4.15094,1.30286-6ZM10,18c0-1.89148.58038-4.62903,1.54431-6h-1.19147c-.85339,1.43121-1.35284,4.15094-1.35284,6s.49945,4.56879,1.35284,6h1.19147c-.96393-1.37097-1.54431-4.10852-1.54431-6ZM20,10.67999c-.43793.44049-.87537.88007-1.31354,1.32001h-1.41058c.90887-.91138,1.81653-1.82343,2.72412-2.73755v-2.59229c-1.76404,1.7804-3.53461,3.55957-5.30371,5.32983h-1.41211l.30762-.30762c2.13812-2.13812,4.27808-4.29102,6.4082-6.44336v-2.24902c0-.10486-.02972-.20056-.05957-.29547-2.53748,2.56909-5.08783,5.14111-7.6416,7.69489l-.61938.61938c-.04529-.00629-.08899-.0188-.1355-.0188h-1.19141c-.02692,0-.05212.00818-.07867.01031l1.31793-1.31793c2.53986-2.53986,5.0766-5.09808,7.60077-7.65356-.06445-.01306-.12421-.03882-.19257-.03882h-2.33624c-2.11572,2.13763-4.24121,4.2757-6.36493,6.39941l-5.32715,5.32715c-.99518.99518-1.97949,1.99707-2.97168,2.99408v2.27936c0,.09326.02917.17725.05304.26288,1.40436-1.41418,2.80121-2.83295,4.21161-4.24335l2.90906-2.90906c-.28088.61792-.50952,1.34644-.69165,2.10571l-1.51038,1.51038c-1.40527,1.40527-2.79706,2.81903-4.19641,4.22809.07434.01758.14496.04535.22473.04535h2.30646c.9071-.91156,1.80737-1.82739,2.71692-2.73737-.01483.2569-.02338.50507-.02338.73737,0,.21539.00891.44696.02167.68378-.43701.43774-.86993.87811-1.3064,1.31622h1.43518c.04425.33081.09845.66406.16254,1H3c-1.10449,0-2-.89551-2-2V3c0-1.10449.89551-2,2-2h16c1.10449,0,2,.89551,2,2v8.01654l-1,.96155v-1.2981ZM2,3.28418l1.28418-1.28418h-.28418c-.55267,0-1,.44727-1,1v.28418ZM2,7.28418l3.5918-3.5918c.56158-.56158,1.12219-1.12897,1.68408-1.69238h-2.57959c-.13257.13263-.26489.26685-.39746.39941l-2.29883,2.29883v2.58594ZM2,11.28619c.08862-.08862.17603-.17804.26465-.26666l5.32715-5.32715c1.22522-1.22522,2.44928-2.46008,3.67426-3.69238h-2.57959c-.79657.79962-1.59137,1.60315-2.38763,2.39941l-4.29883,4.29883v2.58795ZM15.25629,2h-2.57959c-1.45856,1.46899-2.91791,2.93945-4.37787,4.39941l-5.32715,5.32715c-.32538.32538-.64661.65338-.97168.979v2.5957c.75665-.75946,1.50629-1.52338,2.26465-2.28174l5.32715-5.32715c1.88885-1.88885,3.78027-3.79083,5.66449-5.69238Z"/></svg>

<svg xmlns="http://www.w3.org/2000/svg" viewBox="0 0 24 24"><path fill="none" d="M0 0h24v24H0z"/><path d="M20.013 22H18.7l-2.2-3.08L14.3 22h-1.313l2.856-4-2.856-4H14.3l2.2 3.08L18.7 14h1.313l-2.856 4 2.856 4zm3.937-4c0-1.85-.45-4.569-1.303-6h-1.191C22.42 13.371 23 16.109 23 18s-.58 4.629-1.544 6h1.191c.854-1.431 1.303-4.15 1.303-6zM10 18c0-1.891.58-4.629 1.544-6h-1.191C9.499 13.431 9 16.15 9 18s.5 4.569 1.353 6h1.191C10.58 22.629 10 19.891 10 18zm10-7.32L18.686 12h-1.41c.909-.911 1.816-1.823 2.724-2.738V6.67c-1.764 1.78-3.535 3.56-5.304 5.33h-1.412l.308-.308C15.73 9.554 17.87 7.402 20 5.25V3c0-.105-.03-.2-.06-.295-2.537 2.569-5.087 5.14-7.641 7.694l-.62.62c-.045-.007-.089-.019-.135-.019h-1.191c-.027 0-.053.008-.08.01l1.319-1.318c2.54-2.54 5.076-5.098 7.6-7.653C19.129 2.026 19.069 2 19 2h-2.336a1753.244 1753.244 0 0 1-6.365 6.4l-5.327 5.327c-.996.995-1.98 1.997-2.972 2.994V19c0 .093.03.177.053.263 1.404-1.414 2.801-2.833 4.212-4.243l2.909-2.91c-.281.618-.51 1.347-.692 2.106l-1.51 1.51c-1.406 1.406-2.797 2.82-4.197 4.229.075.017.145.045.225.045h2.306c.908-.912 1.808-1.827 2.717-2.737A14.83 14.83 0 0 0 8 18c0 .215.009.447.022.684-.437.438-.87.878-1.307 1.316H8.15c.045.33.099.664.163 1H3a2 2 0 0 1-2-2V3a2 2 0 0 1 2-2h16a2 2 0 0 1 2 2v8.017l-1 .961V10.68zM2 3.284L3.284 2H3a1 1 0 0 0-1 1v.284zm0 4l3.592-3.592C6.153 3.131 6.714 2.563 7.276 2h-2.58l-.397.4L2 4.697v2.586zm0 4.002l.265-.266 5.327-5.328c1.225-1.225 2.45-2.46 3.674-3.692h-2.58c-.796.8-1.59 1.603-2.387 2.4L2 8.697v2.588zM15.256 2h-2.58A1514.87 1514.87 0 0 1 8.3 6.4l-5.327 5.327c-.326.325-.647.653-.972.979V15.3c.757-.76 1.506-1.523 2.265-2.281l5.327-5.328c1.889-1.888 3.78-3.79 5.664-5.692z"/></svg>
